icon-svg/wow.svg

<svg xmlns="http://www.w3.org/2000/svg" fill="#44739e" viewBox="0 0 24 24"><path d="M14.78 8.392a.832.832 0 0 1 .062.574l-.942 3.757-1.9-4.89-1.9 4.89-.942-3.757a.833.833 0 0 1 .064-.574l.278-.559H6.167l.662.663a.81.81 0 0 1 .223.407l1.515 6.818a.834.834 0 0 1-.224.77l-.51.509h3.334l-.386-.773L12 12.833l1.219 3.394-.386.773h3.334l-.51-.509a.834.834 0 0 1-.224-.77L16.948 8.9a.82.82 0 0 1 .223-.407l.662-.663H14.5Zm5.553-1.91V3.667h-2.815a9.966 9.966 0 0 0-11.036 0H3.667v2.815a9.966 9.966 0 0 0 0 11.036v2.815h2.815a9.966 9.966 0 0 0 11.036 0h2.815v-2.815a9.966 9.966 0 0 0 0-11.036m-1.515 10.3-.151.218v1.67H17l-.215.151a8.3 8.3 0 0 1-9.564 0L7 18.667H5.333V17l-.151-.215a8.3 8.3 0 0 1 0-9.564L5.333 7V5.333H7l.215-.151a8.3 8.3 0 0 1 9.564 0l.221.151h1.67V7l.151.215a8.3 8.3 0 0 1 0 9.564z"/></svg>

<?xml version="1.0" encoding="UTF-8"?>
<svg width="24px" fill="#44739e" height="24px" viewBox="0 0 24 24" version="1.1" xmlns="http://www.w3.org/2000/svg" xmlns:xlink="http://www.w3.org/1999/xlink">
            <path d="m 14.78,8.392 a 0.832,0.832 0 0 1 0.062,0.574 L 13.9,12.723 12,7.833 10.1,12.723 9.158,8.966 A 0.833,0.833 0 0 1 9.222,8.392 L 9.5,7.833 H 6.167 l 0.662,0.663 a 0.811,0.811 0 0 1 0.223,0.407 l 1.515,6.818 a 0.834,0.834 0 0 1 -0.224,0.77 L 7.833,17 h 3.334 L 10.781,16.227 12,12.833 13.219,16.227 12.833,17 h 3.334 l -0.51,-0.509 a 0.834,0.834 0 0 1 -0.224,-0.77 L 16.948,8.9 A 0.819,0.819 0 0 1 17.171,8.493 L 17.833,7.83 H 14.5 Z m 5.553,-1.91 V 3.667 h -2.815 a 9.966,9.966 0 0 0 -11.036,0 H 3.667 v 2.815 a 9.966,9.966 0 0 0 0,11.036 v 2.815 h 2.815 a 9.966,9.966 0 0 0 11.036,0 h 2.815 v -2.815 a 9.966,9.966 0 0 0 0,-11.036 z M 18.818,16.782 18.667,17 v 1.67 H 17 l -0.215,0.151 a 8.3,8.3 0 0 1 -9.564,0 L 7,18.667 H 5.333 V 17 L 5.182,16.785 a 8.3,8.3 0 0 1 0,-9.564 L 5.333,7 V 5.333 H 7 L 7.215,5.182 a 8.3,8.3 0 0 1 9.564,0 L 17,5.333 h 1.67 V 7 l 0.151,0.215 a 8.3,8.3 0 0 1 0,9.564 z"/>

</svg>
